NotoEmoji/emoji_u1f170.svg

<svg enable-background="new 0 0 128 128" viewBox="0 0 128 128" xmlns="http://www.w3.org/2000/svg"><path d="m116 4h-104c-4.42 0-8 3.58-8 8v104c0 4.42 3.58 8 8 8h104c4.42 0 8-3.58 8-8v-104c0-4.42-3.58-8-8-8z" fill="#c33"/><path d="m109.7 4h-98.2c-4.13.03-7.47 3.37-7.5 7.5v97.9c-.01 4.14 3.34 7.49 7.48 7.5h.02 98.1c4.14.01 7.49-3.34 7.5-7.48 0-.01 0-.01 0-.02v-97.9c.09-4.05-3.13-7.41-7.18-7.5-.07 0-.15 0-.22 0z" fill="#f44336"/><path d="m39.7 12.9c0-2.3-1.6-3-10.8-2.7-7.7.3-11.5 1.2-13.8 4s-2.9 8.5-3 15.3c0 4.8 0 9.3 2.5 9.3 3.4 0 3.4-7.9 6.2-12.3 5.4-8.7 18.9-10.6 18.9-13.6z" fill="#ff8a80"/><path d="m77.6 87.5h-31.3c-.84 0-1.59.52-1.9 1.3l-6.2 17.8c-.3.79-1.06 1.31-1.9 1.3h-11.5c-1.1.01-2.01-.87-2.03-1.97 0-.25.04-.49.13-.73l31.7-84c.3-.79 1.06-1.31 1.9-1.3h11c.84 0 1.59.52 1.9 1.3l31.8 84c.39 1.03-.14 2.19-1.17 2.57-.23.09-.48.13-.73.13h-11.7c-.84 0-1.59-.52-1.9-1.3l-6.2-17.8c-.31-.78-1.06-1.3-1.9-1.3zm-25.6-12.3h19.9c1.13-.02 2.03-.96 2.01-2.09 0-.21-.04-.41-.11-.61l-9.9-28.4c-.34-1.05-1.48-1.62-2.52-1.28-.6.2-1.08.67-1.28 1.28l-9.9 28.4c-.39 1.03.14 2.19 1.17 2.57.2.08.42.12.63.13z" fill="#fafafa"/></svg>

<?xml version="1.0" encoding="utf-8"?>
<!-- Generator: Adobe Illustrator 25.2.3, SVG Export Plug-In . SVG Version: 6.00 Build 0)  -->
<svg version="1.1" id="Layer_2" xmlns="http://www.w3.org/2000/svg" xmlns:xlink="http://www.w3.org/1999/xlink" x="0px" y="0px"
	 viewBox="0 0 128 128" style="enable-background:new 0 0 128 128;" xml:space="preserve">
<g>
	<path style="fill:#CC3333;" d="M116,4H12c-4.42,0-8,3.58-8,8v104c0,4.42,3.58,8,8,8h104c4.42,0,8-3.58,8-8V12
		C124,7.58,120.42,4,116,4z"/>
	<path style="fill:#F44336;" d="M109.7,4H11.5C7.37,4.03,4.03,7.37,4,11.5v97.9c-0.01,4.14,3.34,7.49,7.48,7.5c0.01,0,0.01,0,0.02,0
		h98.1c4.14,0.01,7.49-3.34,7.5-7.48c0-0.01,0-0.01,0-0.02V11.5c0.09-4.05-3.13-7.41-7.18-7.5C109.85,4,109.77,4,109.7,4z"/>
	<path style="fill:#FF8A80;" d="M39.7,12.9c0-2.3-1.6-3-10.8-2.7c-7.7,0.3-11.5,1.2-13.8,4s-2.9,8.5-3,15.3c0,4.8,0,9.3,2.5,9.3
		c3.4,0,3.4-7.9,6.2-12.3C26.2,17.8,39.7,15.9,39.7,12.9z"/>
	<path style="fill:#FAFAFA;" d="M77.6,87.5H46.3c-0.84,0-1.59,0.52-1.9,1.3l-6.2,17.8c-0.3,0.79-1.06,1.31-1.9,1.3H24.8
		c-1.1,0.01-2.01-0.87-2.03-1.97c0-0.25,0.04-0.49,0.13-0.73l31.7-84c0.3-0.79,1.06-1.31,1.9-1.3h11c0.84,0,1.59,0.52,1.9,1.3
		l31.8,84c0.39,1.03-0.14,2.19-1.17,2.57c-0.23,0.09-0.48,0.13-0.73,0.13H87.6c-0.84,0-1.59-0.52-1.9-1.3l-6.2-17.8
		C79.19,88.02,78.44,87.5,77.6,87.5z M52,75.2h19.9c1.13-0.02,2.03-0.96,2.01-2.09c0-0.21-0.04-0.41-0.11-0.61l-9.9-28.4
		c-0.34-1.05-1.48-1.62-2.52-1.28c-0.6,0.2-1.08,0.67-1.28,1.28l-9.9,28.4c-0.39,1.03,0.14,2.19,1.17,2.57
		C51.57,75.15,51.79,75.19,52,75.2z"/>
</g>
</svg>
